apps/web/public/icons/rate.svg

<?xml version="1.0" encoding="UTF-8"?>
<svg xmlns="http://www.w3.org/2000/svg" xmlns:xlink="http://www.w3.org/1999/xlink" width="19px" height="19px" viewBox="0 0 19 19" version="1.1">
  <title>chromecast_icon_2</title>
  <g id="1.1.0" stroke="none" stroke-width="1" fill="none" fill-rule="evenodd">
    <g id="切图" transform="translate(-630.000000, -514.000000)" fill="#1E6CF4" fill-rule="nonzero">
      <g id="chromecast_icon_2" transform="translate(630.000000, 514.000000)">
        <path d="M15.5288905,11.6210396 C16.340738,10.3959158 16.7812576,8.94034653 16.7812576,7.44950495 C16.7812576,5.46014851 16.0201505,3.58836634 14.6409323,2.18217822 C13.261714,0.775990099 11.4258315,0 9.47462976,0 C7.52342802,0 5.68754552,0.775990099 4.30832726,2.18217822 C2.92910901,3.58836634 2.16800194,5.46014851 2.16800194,7.44950495 C2.16800194,8.95445545 2.61544064,10.4194307 3.44112649,11.6516089 L0,15.1623762 L3.20587521,15.7196782 L3.81014809,19 L7.98470503,14.7438119 C8.47365866,14.8472772 8.97183782,14.8990099 9.47462976,14.8990099 C9.99126001,14.8990099 10.5055839,14.8449257 11.0060694,14.7344059 L15.1898519,19 L15.7964312,15.7173267 L19,15.1600248 L15.5288905,11.6210396 L15.5288905,11.6210396 Z M4.82957028,15.6326733 L4.5804807,14.2899752 L3.3465647,14.0759901 L4.49514445,12.9049505 C5.0279194,13.4105198 5.62757951,13.8314356 6.28028648,14.1535891 L4.82957028,15.6326733 Z M7.95010925,13.0436881 C6.8476572,12.7309406 5.86974994,12.0936881 5.12709395,11.1954208 C4.25989318,10.1513614 3.78247147,8.82042079 3.78247147,7.44950495 C3.78247147,4.24913366 6.33563972,1.6460396 9.47462976,1.6460396 C12.6136198,1.6460396 15.1667881,4.24913366 15.1667881,7.44950495 C15.1667881,8.80866337 14.6962855,10.130198 13.842923,11.1695545 C13.111799,12.0631188 12.1500364,12.7027228 11.0614227,13.0248762 L11.0337461,13.0319307 C10.5286477,13.1777228 10.0050983,13.2529703 9.47462976,13.2529703 C8.95799951,13.2529703 8.44367565,13.1824257 7.95010925,13.0436881 L7.95010925,13.0436881 Z M14.4195193,14.2899752 L14.1704297,15.6326733 L12.7012624,14.1347772 C13.3493566,13.8102723 13.9490168,13.387005 14.4771789,12.8767327 L15.6511289,14.0736386 L14.4195193,14.2899752 Z" id="形状"></path>
        <path d="M11.4412327,10.7404264 C11.621083,10.6046208 11.7110081,10.3774977 11.6727899,10.1480331 L11.4187515,8.60968387 L12.4911084,7.52089787 C12.6507255,7.35933607 12.7069287,7.1205056 12.6372368,6.90040692 C12.5675448,6.68030825 12.3876946,6.52108793 12.167378,6.48830727 L10.6836137,6.26352565 L10.0226641,4.86098196 C9.92374645,4.65259066 9.72366308,4.52380952 9.50109842,4.52380952 C9.27853377,4.52380952 9.07845039,4.65259066 8.97953276,4.86098196 L8.31633505,6.26118417 L6.83257068,6.4859658 C6.61225415,6.51874645 6.43240393,6.67796677 6.36271197,6.89806545 C6.29302,7.11816412 6.3492232,7.3569946 6.5110884,7.51855639 L7.58344538,8.60734239 L7.32940693,10.1456916 C7.29118876,10.3751562 7.38111387,10.6022793 7.5609641,10.7380849 C7.66212985,10.8153536 7.78352876,10.8551587 7.90267953,10.8551587 C7.99485277,10.8551587 8.08927414,10.8317439 8.174703,10.7849144 L9.50109842,10.0590571 L10.8274938,10.7849144 C11.0253291,10.8949637 11.2591344,10.8785734 11.4412327,10.7404264 L11.4412327,10.7404264 Z M10.4295752,7.97748555 C10.2924394,8.11563259 10.2294918,8.31699946 10.2632138,8.51368338 L10.3801164,9.21846744 L9.77312189,8.88597795 C9.60226417,8.79231894 9.39993267,8.79231894 9.23132308,8.88597795 L8.62432857,9.21846744 L8.74123121,8.51368338 C8.772705,8.31699946 8.71200555,8.11563259 8.57486975,7.97748555 L8.08477789,7.47875131 L8.76371249,7.3757264 C8.95255523,7.3476287 9.11666856,7.22353051 9.20209742,7.04323691 L9.50559468,6.40167269 L9.80909194,7.04089544 C9.89452079,7.21884756 10.056386,7.34294575 10.2474769,7.37338493 L10.9264115,7.47640984 L10.4295752,7.97748555 L10.4295752,7.97748555 Z" id="形状"></path>
      </g>
    </g>
  </g>
</svg>

<svg xmlns="http://www.w3.org/2000/svg" width="19" height="19" viewBox="0 0 19 19"><title>chromecast_icon_2</title><g fill="#1e6cf4"><path d="M15.529 11.621A7.57 7.57 0 0 0 16.78 7.45c0-1.99-.76-3.862-2.14-5.268A7.2 7.2 0 0 0 9.475 0a7.2 7.2 0 0 0-5.167 2.182 7.48 7.48 0 0 0-2.14 5.268c0 1.504.447 2.97 1.273 4.202L0 15.162l3.206.558L3.81 19l4.175-4.256a7.2 7.2 0 0 0 3.021-.01L15.19 19l.606-3.283L19 15.16zm-10.7 4.012L4.58 14.29l-1.233-.214 1.148-1.171a7.3 7.3 0 0 0 1.785 1.249zm3.121-2.59a5.65 5.65 0 0 1-2.823-1.848A5.87 5.87 0 0 1 3.782 7.45c0-3.2 2.554-5.804 5.693-5.804s5.692 2.603 5.692 5.804c0 1.359-.47 2.68-1.324 3.72a5.66 5.66 0 0 1-2.782 1.855l-.027.007a5.6 5.6 0 0 1-3.084.012m6.47 1.247-.25 1.343-1.469-1.498a7.2 7.2 0 0 0 1.776-1.258l1.174 1.197z"/><path d="M11.441 10.74a.61.61 0 0 0 .232-.592l-.254-1.538 1.072-1.09c.16-.16.216-.4.146-.62a.59.59 0 0 0-.47-.412l-1.483-.224-.661-1.403a.58.58 0 0 0-.522-.337.58.58 0 0 0-.521.337l-.664 1.4-1.483.225a.59.59 0 0 0-.47.412.61.61 0 0 0 .148.62l1.072 1.09-.254 1.538a.61.61 0 0 0 .232.592.57.57 0 0 0 .614.047l1.326-.726 1.326.726c.198.11.432.094.614-.045M10.43 7.977a.62.62 0 0 0-.167.537l.117.704-.607-.332a.56.56 0 0 0-.542 0l-.607.332.117-.704a.62.62 0 0 0-.166-.537l-.49-.498.679-.103a.58.58 0 0 0 .438-.333l.304-.641.303.639a.59.59 0 0 0 .438.332l.68.103z"/></g></svg>
